icons/desktop/12/svg/musical-note-12.svg

<svg width="12" height="12" viewBox="0 0 12 12" fill="none" xmlns="http://www.w3.org/2000/svg">
<g clip-path="url(#clip0_8069_32479)">
<path fill-rule="evenodd" clip-rule="evenodd" d="M8.29204 1.00767C8.82585 1.01993 9.33913 1.04626 9.82915 1.08384L9.82817 1.08481C11.0694 1.17956 11.999 2.23006 11.9991 3.452V10.1952C11.9991 10.7517 11.7133 11.2716 11.2393 11.5692L11.2315 11.576L11.2305 11.575L11.212 11.5877C10.8306 11.8481 10.3701 12.0008 9.87407 12.0008C8.43152 12.0008 7.29083 10.7148 7.53129 9.23228C7.72789 8.02622 8.83644 7.25094 9.96782 7.25083H10.7491V5.24985H4.49711L4.49418 10.2528L4.49028 10.2518C4.47119 10.7889 4.1888 11.2813 3.73442 11.5682L3.70708 11.5868L3.7061 11.5858C3.32496 11.8466 2.86417 11.9998 2.36918 11.9999C0.926508 11.9999 -0.214033 10.7127 0.0264114 9.2313C0.223012 8.0252 1.33152 7.24991 2.46293 7.24985H3.24614L3.24809 3.452C3.24819 2.22813 4.17911 1.17977 5.42094 1.08481C6.14903 1.02857 6.9281 0.995769 7.752 0.999853L8.29204 1.00767ZM9.96782 8.50083C9.3937 8.50094 8.91191 8.86859 8.7852 9.33774L8.76469 9.43247C8.6494 10.1438 9.19074 10.7508 9.87407 10.7508C10.1137 10.7508 10.3337 10.6772 10.5166 10.5497L10.5362 10.536L10.5645 10.5184L10.5733 10.5125C10.6819 10.4452 10.7491 10.3251 10.7491 10.1952V8.50083H9.96782ZM2.46293 8.49985C1.88877 8.49991 1.40704 8.86759 1.28032 9.33677L1.25981 9.43149C1.1445 10.1419 1.68598 10.7499 2.36918 10.7499C2.60932 10.7498 2.82983 10.6753 3.01079 10.5487L3.02055 10.5418L3.03129 10.535L3.05864 10.5174L3.06547 10.5135C3.14899 10.4613 3.20755 10.3793 3.23149 10.2879L3.24418 10.1942L3.24516 8.49985H2.46293ZM7.74614 2.24985C6.95828 2.24594 6.21334 2.2762 5.51762 2.32993C4.94795 2.37332 4.49819 2.86028 4.49809 3.452V3.99985H10.7491V3.452C10.749 2.89699 10.3543 2.43471 9.83793 2.3436L9.73344 2.32993C9.26493 2.294 8.77421 2.2694 8.26372 2.25767L7.74614 2.24985Z" fill="black"/>
</g>
<defs>
<clipPath id="clip0_8069_32479">
<rect width="12" height="12" fill="white"/>
</clipPath>
</defs>
</svg>

<!-- This Source Code Form is subject to the terms of the Mozilla Public
   - License, v. 2.0. If a copy of the MPL was not distributed with this
   - file, You can obtain one at http://mozilla.org/MPL/2.0/. -->
<svg xmlns="http://www.w3.org/2000/svg" width="12" height="12" fill="context-fill" fill-opacity="context-fill-opacity" viewBox="0 0 12 12">
    <path fill-rule="evenodd" d="M8.292 1.008q.802.018 1.537.076c1.24.096 2.17 1.146 2.17 2.368v6.743c0 .557-.286 1.077-.76 1.374l-.008.007v-.001l-.019.013a2.376 2.376 0 0 1-3.68-2.355C7.727 8.025 8.835 7.25 9.967 7.25h.781V5.25H4.497l-.003 5.003-.004-.001a1.62 1.62 0 0 1-.756 1.316l-.027.019v-.001A2.376 2.376 0 0 1 .026 9.23C.222 8.025 1.331 7.25 2.462 7.25h.783l.002-3.798c0-1.224.931-2.272 2.173-2.367A28 28 0 0 1 7.752 1zM9.968 8.5c-.574 0-1.056.368-1.183.837l-.02.094a1.126 1.126 0 0 0 1.752 1.118l.02-.014.027-.018.01-.006a.37.37 0 0 0 .175-.317V8.501zM2.463 8.5c-.574 0-1.056.368-1.183.837l-.02.094a1.127 1.127 0 0 0 1.75 1.118l.01-.007.011-.007.028-.018.006-.003a.38.38 0 0 0 .166-.226l.013-.094.001-1.694zm5.283-6.25a27 27 0 0 0-2.228.08c-.57.043-1.02.53-1.02 1.122V4h6.251v-.548a1.12 1.12 0 0 0-.911-1.108l-.105-.014q-.703-.054-1.47-.072z" clip-rule="evenodd" />
</svg>
